images/item__image2.svg

<svg version="1.1" xmlns="http://www.w3.org/2000/svg" xmlns:xlink="http://www.w3.org/1999/xlink" width="52" height="54" viewBox="0,0,246.51563,256"><g fill="#9fdb3d" fill-rule="nonzero" stroke="none" stroke-width="1" stroke-linecap="butt" stroke-linejoin="miter" stroke-miterlimit="10" stroke-dasharray="" stroke-dashoffset="0" font-family="none" font-weight="none" font-size="none" text-anchor="none" style="mix-blend-mode: normal"><g transform="translate(1.29154,-0.00034) scale(4.74074,4.74074)"><path d="M17.8522,2.20332c-18.1506,6.52724 -23.53153,29.82698 -10.03905,43.62508c5.22035,5.3705 10.03905,7.3535 18.07025,7.3535c5.381,0 7.5494,-0.4131 10.4406,-1.8177c5.7022,-2.8918 9.1556,-6.1968 12.0469,-11.8978c2.4897,-4.7095 2.7306,-5.8662 2.8109,-12.2282c0,-6.5273 -0.2409,-7.4361 -2.8912,-12.3935c-6.1038,-11.40202 -18.9537,-16.77254 -30.4384,-12.64138zM27.0881,4.68202c-0.8834,3.96592 -2.57,5.78368 -7.7903,8.67548c-6.2643,3.3875 -11.32403,8.5102 -12.68934,12.6413c-2.08812,6.5273 0.88344,13.6329 7.95094,18.9208c2.8912,2.1482 4.1762,2.5613 8.0312,2.5613c7.6297,0 10.1194,-2.2308 19.1144,-17.3509c1.4456,-2.3961 6.9871,-5.2879 8.0312,-4.2138c0.3212,0.2479 0.0803,2.8092 -0.4016,5.6184c-2.4093,13.4676 -14.6971,22.3083 -27.5471,19.8296c-17.34747,-3.305 -25.53933,-23.465 -15.5806,-38.2546c4.0959,-5.94888 12.2075,-10.57578 18.7931,-10.65841c2.4897,0 2.6503,0.16525 2.0881,2.23083zM30.7022,4.51678c0,1.81771 -2.811,7.18822 -4.4975,8.75802c-0.8835,0.7437 -3.7747,2.5614 -6.5856,4.0486c-5.7825,3.1397 -9.5572,7.3535 -10.28002,11.402c-0.72281,3.8007 2.32902,9.5843 6.74622,12.8892c7.2281,5.2879 13.8941,2.5613 19.4356,-7.9318c1.5259,-2.9744 3.2928,-6.0315 3.9353,-6.7751c1.3653,-1.7351 6.7462,-4.6269 8.5131,-4.6269c2.0078,0 1.3653,1.4046 -0.9637,2.0656c-3.6944,0.9088 -6.666,3.718 -9.0753,8.5928c-6.1038,12.5587 -14.2153,16.2768 -22.4875,10.4105c-1.6865,-1.2393 -4.0156,-3.6354 -5.2203,-5.3705c-5.70216,-8.5102 -2.0881,-16.8551 10.1194,-23.1345c4.7384,-2.4787 7.469,-5.53577 8.3525,-9.33644c0.6425,-2.39608 2.0078,-3.05707 2.0078,-0.99148zM39.2153,6.83023c6.184,4.37907 11.565,13.79807 7.9509,13.79807c-3.9353,0 -10.3603,5.6184 -12.2878,10.741c-1.4456,3.8833 -5.6219,8.8407 -8.5131,10.2453c-3.7747,1.8177 -7.3887,0.7436 -11.324,-3.2223c-3.855,-4.0485 -4.8991,-7.7666 -3.1322,-11.6499c1.3653,-2.9744 6.184,-7.2708 9.9587,-8.758c4.9794,-1.983 10.4406,-8.59285 10.4406,-12.64139c0,-1.98296 2.7306,-1.40459 6.9069,1.48722z"></path></g></g></svg>

<svg width="52" height="54" viewBox="0 0 52 54" fill="none" xmlns="http://www.w3.org/2000/svg">
<path d="M17.8522 2.20332C-0.298398 8.73056 -5.67933 32.0303 7.81315 45.8284C13.0335 51.1989 17.8522 53.1819 25.8834 53.1819C31.2644 53.1819 33.4328 52.7688 36.324 51.3642C42.0262 48.4724 45.4796 45.1674 48.3709 39.4664C50.8606 34.7569 51.1015 33.6002 51.1818 27.2382C51.1818 20.7109 50.9409 19.8021 48.2906 14.8447C42.1868 3.44268 29.3369 -1.92784 17.8522 2.20332ZM27.0881 4.68202C26.2047 8.64794 24.5181 10.4657 19.2978 13.3575C13.0335 16.745 7.97377 21.8677 6.60846 25.9988C4.52034 32.5261 7.4919 39.6317 14.5594 44.9196C17.4506 47.0678 18.7356 47.4809 22.5906 47.4809C30.2203 47.4809 32.71 45.2501 41.705 30.13C43.1506 27.7339 48.6921 24.8421 49.7362 25.9162C50.0574 26.1641 49.8165 28.7254 49.3346 31.5346C46.9253 45.0022 34.6375 53.8429 21.7875 51.3642C4.44003 48.0592 -3.75183 27.8992 6.2069 13.1096C10.3028 7.16072 18.4144 2.53382 25 2.45119C27.4897 2.45119 27.6503 2.61644 27.0881 4.68202ZM30.7022 4.51678C30.7022 6.33449 27.8912 11.705 26.2047 13.2748C25.3212 14.0185 22.43 15.8362 19.6191 17.3234C13.8366 20.4631 10.0619 24.6769 9.33908 28.7254C8.61627 32.5261 11.6681 38.3097 16.0853 41.6146C23.3134 46.9025 29.9794 44.1759 35.5209 33.6828C37.0468 30.7084 38.8137 27.6513 39.4562 26.9077C40.8215 25.1726 46.2024 22.2808 47.9693 22.2808C49.9771 22.2808 49.3346 23.6854 47.0056 24.3464C43.3112 25.2552 40.3396 28.0644 37.9303 32.9392C31.8265 45.4979 23.715 49.216 15.4428 43.3497C13.7563 42.1104 11.4272 39.7143 10.2225 37.9792C4.52034 29.469 8.1344 21.1241 20.3419 14.8447C25.0803 12.366 27.8109 9.30893 28.6944 5.50826C29.3369 3.11218 30.7022 2.45119 30.7022 4.51678ZM39.2153 6.83023C45.3993 11.2093 50.7803 20.6283 47.1662 20.6283C43.2309 20.6283 36.8059 26.2467 34.8784 31.3693C33.4328 35.2526 29.2565 40.21 26.3653 41.6146C22.5906 43.4323 18.9766 42.3582 15.0413 38.3923C11.1863 34.3438 10.1422 30.6257 11.9091 26.7424C13.2744 23.768 18.0931 19.4716 21.8678 17.9844C26.8472 16.0014 32.3084 9.39155 32.3084 5.34301C32.3084 3.36005 35.039 3.93842 39.2153 6.83023Z" fill="#0F0F10"/>
</svg>
